F[BALLADE
CUT[Koenig von Mailand
    Es kehrt ein Fuerst beim Fuersten ein,]
CNR[er beschwaengert dem Fuerst sein Toechterlein,]
REG[Osteuropa, UdSSR, Russland, Wolgakolonie, Saratow, Semenoska]
SRC[3, S. 225
    1928 gedruckt]
KEY[Q0067  16  A 3/4]
MEL[-5_  1_2_3_4_5_4_  3_2_1_2_
    3_3_  222_-6__-7_1_  2_2_-5__
    -5_-5_  112_5__.4_  3_2_1__0_ //] >>
FCT[Ballade, Standesunterschied, Schwangerschaft, Moral, Hinrichtung,
    Rettung, Vergeltung]
